X: 1
T: Christmas Day ida Morning
O: trad. Shetland
M: 6/8
K: D
[|\
"D"f2d f3 | "A"e2d c2A | "G"B2G d2c | BG2 G3 |\
"Em"e2f g2f | "A"e2d c2B | "A7"ABA ABc | "D"d3 d2e ||
"D"f2d a2f | "A"e2d c2A | "G"B2G d2c | BG2 G3 |\
"Em"e2f g2f | "A"e2d c2B | "A7"ABA ABc | "D"d3 d3 |]
|:\
"Em"e3 (4e-def | "(G)"g3 B3 | "D"A2A A2A | "G"B2c d2B |\
"Em"e3 (4e-def | "(G)"g3 B3 | "A(m)"A2e "G"dB2 | "A(m)"A3 A3 :|
